icons/1_Primary/STACK.svg

<svg xmlns="http://www.w3.org/2000/svg" width="1024" height="1024" fill="none">
   <g clip-path="url(#a)">
      <path fill="#8C72BD" d="M512 1024c282.77 0 512-229.23 512-512S794.77 0 512 0 0 229.23 0 512s229.23 512 512 512Z"/>
      <path fill="#fff" d="M511.35 255.75c-141.38 0-256 114.62-256 256s114.61 256 256 256 256-114.61 256-256-114.61-256-256-256Zm146.48 359.36-146.48 36.62-146.48-36.62v-36.62l146.48 36.62 146.48-36.62v36.62Zm0-85.05-146.48 36.62-146.48-36.62v-36.62l146.48 36.62 146.48-36.62v36.62Zm0-85.05-146.48 36.61L364.87 445v-36.62l146.48-36.62 146.48 36.62v36.63Z"/>
   </g>
   <defs>
      <clipPath id="a">
         <path fill="#fff" d="M0 0h1024v1024H0z"/>
      </clipPath>
   </defs>
</svg>

<svg width="1024" height="1024" viewBox="0 0 1024 1024" fill="none" xmlns="http://www.w3.org/2000/svg">
<g clip-path="url(#clip0_2_3546)">
<path d="M512 1024C794.77 1024 1024 794.77 1024 512C1024 229.23 794.77 0 512 0C229.23 0 0 229.23 0 512C0 794.77 229.23 1024 512 1024Z" fill="#8C72BD"/>
<path d="M511.35 255.75C369.97 255.75 255.35 370.37 255.35 511.75C255.35 653.13 369.96 767.75 511.35 767.75C652.74 767.75 767.35 653.14 767.35 511.75C767.35 370.36 652.74 255.75 511.35 255.75ZM657.83 615.11L511.35 651.73L364.87 615.11V578.49L511.35 615.11L657.83 578.49V615.11ZM657.83 530.06L511.35 566.68L364.87 530.06V493.44L511.35 530.06L657.83 493.44V530.06ZM657.83 445.01L511.35 481.62L364.87 445V408.38L511.35 371.76L657.83 408.38V445.01Z" fill="white"/>
</g>
<defs>
<clipPath id="clip0_2_3546">
<rect width="1024" height="1024" fill="white"/>
</clipPath>
</defs>
</svg>
